assets/img/05.svg

<?xml version="1.0"?>
<svg xmlns="http://www.w3.org/2000/svg" xmlns:xlink="http://www.w3.org/1999/xlink" xmlns:svgjs="http://svgjs.com/svgjs" version="1.1" width="512" height="512" x="0" y="0" viewBox="0 0 64 64" style="enable-background:new 0 0 512 512" xml:space="preserve" class=""><g><path xmlns="http://www.w3.org/2000/svg" d="m47 11v6l8 8v-14z" fill="#bebebe" data-original="#bebebe" style=""/><path xmlns="http://www.w3.org/2000/svg" d="m9 58v-26h-7l30-30 30 30h-7v26z" fill="#003180" data-original="#3079e6" style="" class=""/><path xmlns="http://www.w3.org/2000/svg" d="m9 32 23-23 23 23v26h-46z" fill="#d6d6d6" data-original="#d6d6d6" style=""/><path xmlns="http://www.w3.org/2000/svg" d="m32 9-23 23v20h36a4 4 0 0 0 4-4v-22z" fill="#f2f2f2" data-original="#f2f2f2" style=""/><path xmlns="http://www.w3.org/2000/svg" d="m31 38h20v16h-20z" fill="#ffffff" data-original="#ffffff" style=""/><path xmlns="http://www.w3.org/2000/svg" d="m13 38h14v20h-14z" fill="#001d4c" data-original="#2763bb" style="" class=""/><path xmlns="http://www.w3.org/2000/svg" d="m13 38v14h8a3 3 0 0 0 3-3v-11z" fill="#003180" data-original="#3079e6" style="" class=""/><path xmlns="http://www.w3.org/2000/svg" d="m5 58h54v4h-54z" fill="#001d4c" data-original="#2763bb" style="" class=""/><path xmlns="http://www.w3.org/2000/svg" d="m5 60h47a2 2 0 0 0 2-2h-49z" fill="#003180" data-original="#3079e6" style="" class=""/><circle xmlns="http://www.w3.org/2000/svg" cx="32" cy="26" fill="#001d4c" r="6" data-original="#2763bb" style="" class=""/><path xmlns="http://www.w3.org/2000/svg" d="m32 20a5.986 5.986 0 0 0 -5.651 8h4.651a3 3 0 0 0 3-3v-4.651a5.971 5.971 0 0 0 -2-.349z" fill="#003180" data-original="#3079e6" style="" class=""/><path xmlns="http://www.w3.org/2000/svg" d="m24.121 60.121a7.242 7.242 0 0 1 -2.121-5.121 7.242 7.242 0 0 1 2.121-5.121l.879-.879 3 3 4-6 4 6 3-3 .879.879a7.242 7.242 0 0 1 2.121 5.121 7.242 7.242 0 0 1 -2.121 5.121 6.416 6.416 0 0 1 -4.536 1.879h-6.686a6.416 6.416 0 0 1 -4.536-1.879z" fill="#f3a845" data-original="#f3a845" style="" class=""/><path xmlns="http://www.w3.org/2000/svg" d="m32.947 54.837-.947-.837-.947.838a5.686 5.686 0 0 0 -1.313 7.162h4.519a5.686 5.686 0 0 0 -1.312-7.163z" fill="#eecc61" data-original="#eecc61" style="" class=""/><path xmlns="http://www.w3.org/2000/svg" d="m4.121 60.121a7.242 7.242 0 0 1 -2.121-5.121 7.242 7.242 0 0 1 2.121-5.121l.879-.879 3 3 4-6 4 6 3-3 .879.879a7.242 7.242 0 0 1 2.121 5.121 7.242 7.242 0 0 1 -2.121 5.121 6.416 6.416 0 0 1 -4.536 1.879h-6.686a6.416 6.416 0 0 1 -4.536-1.879z" fill="#f3a845" data-original="#f3a845" style="" class=""/><path xmlns="http://www.w3.org/2000/svg" d="m12.947 54.837-.947-.837-.947.838a5.686 5.686 0 0 0 -1.313 7.162h4.519a5.686 5.686 0 0 0 -1.312-7.163z" fill="#eecc61" data-original="#eecc61" style="" class=""/><path xmlns="http://www.w3.org/2000/svg" d="m44.121 60.121a7.242 7.242 0 0 1 -2.121-5.121 7.242 7.242 0 0 1 2.121-5.121l.879-.879 3 3 4-6 4 6 3-3 .879.879a7.242 7.242 0 0 1 2.121 5.121 7.242 7.242 0 0 1 -2.121 5.121 6.416 6.416 0 0 1 -4.536 1.879h-6.686a6.416 6.416 0 0 1 -4.536-1.879z" fill="#f3a845" data-original="#f3a845" style="" class=""/><path xmlns="http://www.w3.org/2000/svg" d="m52.947 54.837-.947-.837-.947.838a5.686 5.686 0 0 0 -1.313 7.162h4.519a5.686 5.686 0 0 0 -1.312-7.163z" fill="#eecc61" data-original="#eecc61" style="" class=""/><path xmlns="http://www.w3.org/2000/svg" d="m45 7h12v4h-12z" fill="#e0e0e0" data-original="#e0e0e0" style=""/><path xmlns="http://www.w3.org/2000/svg" d="m45 9h8a2 2 0 0 0 2-2h-10z" fill="#ececec" data-original="#ececec" style="" class=""/><path xmlns="http://www.w3.org/2000/svg" d="m60.586 49.172-.879-.879a1 1 0 0 0 -1.414 0l-2.138 2.137-.155-.23v-17.2h6a1 1 0 0 0 .707-1.707l-6.707-6.707v-12.586h1a1 1 0 0 0 1-1v-4a1 1 0 0 0 -1-1h-12a1 1 0 0 0 -1 1v4a1 1 0 0 0 1 1h1v2.586l-13.293-13.293a1 1 0 0 0 -1.414 0l-30 30a1 1 0 0 0 .707 1.707h6v17.2l-.155.233-2.138-2.14a1 1 0 0 0 -1.414 0l-.879.879a8.242 8.242 0 0 0 0 11.656 7.363 7.363 0 0 0 5.243 2.172h6.686a7.363 7.363 0 0 0 5.243-2.172 8.264 8.264 0 0 0 1.414-1.891 8.264 8.264 0 0 0 1.414 1.891 7.363 7.363 0 0 0 5.243 2.172h6.686a7.363 7.363 0 0 0 5.243-2.172 8.264 8.264 0 0 0 1.414-1.891 8.264 8.264 0 0 0 1.414 1.891 7.363 7.363 0 0 0 5.243 2.172h6.686a7.363 7.363 0 0 0 5.243-2.172 8.242 8.242 0 0 0 0-11.656zm-14.586-41.172h10v2h-10zm2 4h6v10.586l-6-6zm-43.586 19 27.586-27.586 27.586 27.586h-4.172l-22.707-22.707a1 1 0 0 0 -1.414 0l-22.707 22.707zm5.586 1.414 22-22 22 22v14.786l-1.168-1.752a.99.99 0 0 0 -.832-.42v-7.028a1 1 0 0 0 -1-1h-20a1 1 0 0 0 -1 1v9.2l-2 3v-12.2a1 1 0 0 0 -1-1h-14a1 1 0 0 0 -1 1v7.028a.99.99 0 0 0 -.832.417l-1.168 1.755zm32 14.586v-8h8v8.2l-2.155 3.23-2.138-2.137a1 1 0 0 0 -1.414 0l-.879.879a8.264 8.264 0 0 0 -1.414 1.891 8.264 8.264 0 0 0 -1.414-1.891l-.879-.879a1 1 0 0 0 -1.414 0l-2.138 2.137-3.323-4.985a.99.99 0 0 0 -.832-.417v-6.028h8v8zm-16 1.586-.293-.293a1 1 0 0 0 -1.414 0l-.879.879a8.264 8.264 0 0 0 -1.414 1.891 8.264 8.264 0 0 0 -1.414-1.891l-.879-.879a1 1 0 0 0 -1.414 0l-2.138 2.137-2.155-3.23v-8.2h12zm-14.284 7 .284-.251.284.251a4.706 4.706 0 0 1 1.337 5.414h-3.242a4.7 4.7 0 0 1 1.337-5.413zm7.456 3.827a5.361 5.361 0 0 1 -3.43 1.547 6.69 6.69 0 0 0 -2.133-6.873l-.946-.837a1 1 0 0 0 -1.325 0l-.947.838a6.69 6.69 0 0 0 -2.134 6.872 5.36 5.36 0 0 1 -3.429-1.547 6.243 6.243 0 0 1 0-8.828l.172-.171 2.293 2.293a1 1 0 0 0 1.539-.152l3.168-4.755v.2h.132l3.036 4.555a1 1 0 0 0 .732.445.98.98 0 0 0 .806-.288l2.294-2.298.172.172a6.243 6.243 0 0 1 0 8.828zm12.544-3.827.284-.251.284.251a4.706 4.706 0 0 1 1.337 5.414h-3.242a4.7 4.7 0 0 1 1.337-5.413zm7.456 3.827a5.361 5.361 0 0 1 -3.43 1.547 6.69 6.69 0 0 0 -2.133-6.873l-.946-.837a1 1 0 0 0 -1.325 0l-.947.838a6.69 6.69 0 0 0 -2.134 6.872 5.36 5.36 0 0 1 -3.429-1.547 6.243 6.243 0 0 1 0-8.828l.172-.171 2.293 2.293a1 1 0 0 0 1.539-.152l3.168-4.755 3.168 4.752a1 1 0 0 0 .732.448.981.981 0 0 0 .806-.288l2.294-2.298.172.172a6.243 6.243 0 0 1 0 8.828zm12.544-3.827.284-.251.284.251a4.706 4.706 0 0 1 1.337 5.414h-3.242a4.7 4.7 0 0 1 1.337-5.413zm7.456 3.827a5.361 5.361 0 0 1 -3.43 1.547 6.69 6.69 0 0 0 -2.133-6.873l-.946-.837a1 1 0 0 0 -1.325 0l-.947.838a6.69 6.69 0 0 0 -2.134 6.872 5.36 5.36 0 0 1 -3.429-1.547 6.243 6.243 0 0 1 0-8.828l.172-.171 2.293 2.293a1 1 0 0 0 1.539-.152l3.168-4.755 3.168 4.752a1 1 0 0 0 .732.448.98.98 0 0 0 .806-.288l2.294-2.298.172.172a6.243 6.243 0 0 1 0 8.828z" fill="#000000" data-original="#000000" style="" class=""/><path xmlns="http://www.w3.org/2000/svg" d="m32 33a7 7 0 1 0 -7-7 7.008 7.008 0 0 0 7 7zm0-12a5 5 0 1 1 -5 5 5.006 5.006 0 0 1 5-5z" fill="#000000" data-original="#000000" style="" class=""/></g></svg>

<svg xmlns="http://www.w3.org/2000/svg" width="512" height="512" viewBox="0 0 64 64"><path xmlns="http://www.w3.org/2000/svg" d="M47 11v6l8 8V11z" fill="#bebebe" data-original="#bebebe"/><path xmlns="http://www.w3.org/2000/svg" d="M9 58V32H2L32 2l30 30h-7v26z" fill="#003180" data-original="#3079e6"/><path xmlns="http://www.w3.org/2000/svg" d="M9 32L32 9l23 23v26H9z" fill="#d6d6d6" data-original="#d6d6d6"/><path xmlns="http://www.w3.org/2000/svg" d="M32 9L9 32v20h36a4 4 0 004-4V26z" fill="#f2f2f2" data-original="#f2f2f2"/><path xmlns="http://www.w3.org/2000/svg" d="M31 38h20v16H31z" fill="#fff" data-original="#ffffff"/><path xmlns="http://www.w3.org/2000/svg" d="M13 38h14v20H13z" fill="#001d4c" data-original="#2763bb"/><path xmlns="http://www.w3.org/2000/svg" d="M13 38v14h8a3 3 0 003-3V38z" fill="#003180" data-original="#3079e6"/><path xmlns="http://www.w3.org/2000/svg" d="M5 58h54v4H5z" fill="#001d4c" data-original="#2763bb"/><path xmlns="http://www.w3.org/2000/svg" d="M5 60h47a2 2 0 002-2H5z" fill="#003180" data-original="#3079e6"/><circle xmlns="http://www.w3.org/2000/svg" cx="32" cy="26" fill="#001d4c" r="6" data-original="#2763bb"/><path xmlns="http://www.w3.org/2000/svg" d="M32 20a5.986 5.986 0 00-5.651 8H31a3 3 0 003-3v-4.651A5.971 5.971 0 0032 20z" fill="#003180" data-original="#3079e6"/><path xmlns="http://www.w3.org/2000/svg" d="M24.121 60.121A7.242 7.242 0 0122 55a7.242 7.242 0 012.121-5.121L25 49l3 3 4-6 4 6 3-3 .879.879A7.242 7.242 0 0142 55a7.242 7.242 0 01-2.121 5.121A6.416 6.416 0 0135.343 62h-6.686a6.416 6.416 0 01-4.536-1.879z" fill="#f3a845" data-original="#f3a845"/><path xmlns="http://www.w3.org/2000/svg" d="M32.947 54.837L32 54l-.947.838A5.686 5.686 0 0029.74 62h4.519a5.686 5.686 0 00-1.312-7.163z" fill="#eecc61" data-original="#eecc61"/><path xmlns="http://www.w3.org/2000/svg" d="M4.121 60.121A7.242 7.242 0 012 55a7.242 7.242 0 012.121-5.121L5 49l3 3 4-6 4 6 3-3 .879.879A7.242 7.242 0 0122 55a7.242 7.242 0 01-2.121 5.121A6.416 6.416 0 0115.343 62H8.657a6.416 6.416 0 01-4.536-1.879z" fill="#f3a845" data-original="#f3a845"/><path xmlns="http://www.w3.org/2000/svg" d="M12.947 54.837L12 54l-.947.838A5.686 5.686 0 009.74 62h4.519a5.686 5.686 0 00-1.312-7.163z" fill="#eecc61" data-original="#eecc61"/><path xmlns="http://www.w3.org/2000/svg" d="M44.121 60.121A7.242 7.242 0 0142 55a7.242 7.242 0 012.121-5.121L45 49l3 3 4-6 4 6 3-3 .879.879A7.242 7.242 0 0162 55a7.242 7.242 0 01-2.121 5.121A6.416 6.416 0 0155.343 62h-6.686a6.416 6.416 0 01-4.536-1.879z" fill="#f3a845" data-original="#f3a845"/><path xmlns="http://www.w3.org/2000/svg" d="M52.947 54.837L52 54l-.947.838A5.686 5.686 0 0049.74 62h4.519a5.686 5.686 0 00-1.312-7.163z" fill="#eecc61" data-original="#eecc61"/><path xmlns="http://www.w3.org/2000/svg" d="M45 7h12v4H45z" fill="#e0e0e0" data-original="#e0e0e0"/><path xmlns="http://www.w3.org/2000/svg" d="M45 9h8a2 2 0 002-2H45z" fill="#ececec" data-original="#ececec"/><path xmlns="http://www.w3.org/2000/svg" d="M60.586 49.172l-.879-.879a1 1 0 00-1.414 0l-2.138 2.137L56 50.2V33h6a1 1 0 00.707-1.707L56 24.586V12h1a1 1 0 001-1V7a1 1 0 00-1-1H45a1 1 0 00-1 1v4a1 1 0 001 1h1v2.586L32.707 1.293a1 1 0 00-1.414 0l-30 30A1 1 0 002 33h6v17.2l-.155.233-2.138-2.14a1 1 0 00-1.414 0l-.879.879a8.242 8.242 0 000 11.656A7.363 7.363 0 008.657 63h6.686a7.363 7.363 0 005.243-2.172A8.264 8.264 0 0022 58.937a8.264 8.264 0 001.414 1.891A7.363 7.363 0 0028.657 63h6.686a7.363 7.363 0 005.243-2.172A8.264 8.264 0 0042 58.937a8.264 8.264 0 001.414 1.891A7.363 7.363 0 0048.657 63h6.686a7.363 7.363 0 005.243-2.172 8.242 8.242 0 000-11.656zM46 8h10v2H46zm2 4h6v10.586l-6-6zM4.414 31L32 3.414 59.586 31h-4.172L32.707 8.293a1 1 0 00-1.414 0L8.586 31zM10 32.414l22-22 22 22V47.2l-1.168-1.752a.99.99 0 00-.832-.42V38a1 1 0 00-1-1H31a1 1 0 00-1 1v9.2l-2 3V38a1 1 0 00-1-1H13a1 1 0 00-1 1v7.028a.99.99 0 00-.832.417L10 47.2zM42 47v-8h8v8.2l-2.155 3.23-2.138-2.137a1 1 0 00-1.414 0l-.879.879A8.264 8.264 0 0042 51.063a8.264 8.264 0 00-1.414-1.891l-.879-.879a1 1 0 00-1.414 0l-2.138 2.137-3.323-4.985a.99.99 0 00-.832-.417V39h8v8zm-16 1.586l-.293-.293a1 1 0 00-1.414 0l-.879.879A8.264 8.264 0 0022 51.063a8.264 8.264 0 00-1.414-1.891l-.879-.879a1 1 0 00-1.414 0l-2.138 2.137L14 47.2V39h12zm-14.284 7l.284-.251.284.251A4.706 4.706 0 0113.621 61h-3.242a4.7 4.7 0 011.337-5.413zm7.456 3.827a5.361 5.361 0 01-3.43 1.547 6.69 6.69 0 00-2.133-6.873l-.946-.837a1 1 0 00-1.325 0l-.947.838a6.69 6.69 0 00-2.134 6.872 5.36 5.36 0 01-3.429-1.547 6.243 6.243 0 010-8.828L5 50.414l2.293 2.293a1 1 0 001.539-.152L12 47.8v.2h.132l3.036 4.555A1 1 0 0015.9 53a.98.98 0 00.806-.288L19 50.414l.172.172a6.243 6.243 0 010 8.828zm12.544-3.827l.284-.251.284.251A4.706 4.706 0 0133.621 61h-3.242a4.7 4.7 0 011.337-5.413zm7.456 3.827a5.361 5.361 0 01-3.43 1.547 6.69 6.69 0 00-2.133-6.873l-.946-.837a1 1 0 00-1.325 0l-.947.838a6.69 6.69 0 00-2.134 6.872 5.36 5.36 0 01-3.429-1.547 6.243 6.243 0 010-8.828l.172-.171 2.293 2.293a1 1 0 001.539-.152L32 47.8l3.168 4.752A1 1 0 0035.9 53a.981.981 0 00.806-.288L39 50.414l.172.172a6.243 6.243 0 010 8.828zm12.544-3.827l.284-.251.284.251A4.706 4.706 0 0153.621 61h-3.242a4.7 4.7 0 011.337-5.413zm7.456 3.827a5.361 5.361 0 01-3.43 1.547 6.69 6.69 0 00-2.133-6.873l-.946-.837a1 1 0 00-1.325 0l-.947.838a6.69 6.69 0 00-2.134 6.872 5.36 5.36 0 01-3.429-1.547 6.243 6.243 0 010-8.828l.172-.171 2.293 2.293a1 1 0 001.539-.152L52 47.8l3.168 4.752A1 1 0 0055.9 53a.98.98 0 00.806-.288L59 50.414l.172.172a6.243 6.243 0 010 8.828z" data-original="#000000"/><path xmlns="http://www.w3.org/2000/svg" d="M32 33a7 7 0 10-7-7 7.008 7.008 0 007 7zm0-12a5 5 0 11-5 5 5.006 5.006 0 015-5z" data-original="#000000"/></svg>
